Numix/32/places/blue-folder-hdd.svg

<?xml version="1.0" encoding="UTF-8" standalone="no"?>
<!-- Created with Inkscape (http://www.inkscape.org/) -->

<svg
   xmlns:dc="http://purl.org/dc/elements/1.1/"
   xmlns:cc="http://creativecommons.org/ns#"
   xmlns:rdf="http://www.w3.org/1999/02/22-rdf-syntax-ns#"
   xmlns:svg="http://www.w3.org/2000/svg"
   xmlns="http://www.w3.org/2000/svg"
   xmlns:xlink="http://www.w3.org/1999/xlink"
   xmlns:sodipodi="http://sodipodi.sourceforge.net/DTD/sodipodi-0.dtd"
   xmlns:inkscape="http://www.inkscape.org/namespaces/inkscape"
   width="32"
   height="32"
   id="svg2"
   version="1.1"
   inkscape:version="0.48.5 r10040"
   sodipodi:docname="folder-hdd.svg"
   inkscape:export-filename="/media/Data/Main/Visuals/Icons/Numix/Desktop/repos/numix-wiki/Gjorgi/Numix-folders/48/New/folder-144.png"
   inkscape:export-xdpi="270"
   inkscape:export-ydpi="270">
  <defs
     id="defs4">
    <linearGradient
       id="linearGradient3958"
       inkscape:collect="always">
      <stop
         id="stop3960"
         offset="0"
         style="stop-color:#000000;stop-opacity:1;" />
      <stop
         id="stop3962"
         offset="1"
         style="stop-color:#000000;stop-opacity:0;" />
    </linearGradient>
    <radialGradient
       gradientUnits="userSpaceOnUse"
       gradientTransform="matrix(1,0,0,0.10447761,0,50.597015)"
       r="33.5"
       fy="56.5"
       fx="32.5"
       cy="56.5"
       cx="32.5"
       id="radialGradient3964"
       xlink:href="#linearGradient3958"
       inkscape:collect="always" />
    <radialGradient
       inkscape:collect="always"
       xlink:href="#linearGradient3958"
       id="radialGradient3031"
       gradientUnits="userSpaceOnUse"
       gradientTransform="matrix(1,0,0,0.10447761,0,50.597015)"
       cx="32.5"
       cy="56.5"
       fx="32.5"
       fy="56.5"
       r="33.5" />
    <radialGradient
       gradientUnits="userSpaceOnUse"
       gradientTransform="matrix(1,0,0,0.10447761,0,50.597015)"
       r="33.5"
       fy="56.5"
       fx="32.5"
       cy="56.5"
       cx="32.5"
       id="radialGradient3964-4"
       xlink:href="#linearGradient3958-4"
       inkscape:collect="always" />
    <linearGradient
       id="linearGradient3958-4"
       inkscape:collect="always">
      <stop
         id="stop3960-2"
         offset="0"
         style="stop-color:#000000;stop-opacity:1;" />
      <stop
         id="stop3962-1"
         offset="1"
         style="stop-color:#000000;stop-opacity:0;" />
    </linearGradient>
  </defs>
  <sodipodi:namedview
     id="base"
     pagecolor="#ffffff"
     bordercolor="#666666"
     borderopacity="1.0"
     inkscape:pageopacity="0.0"
     inkscape:pageshadow="2"
     inkscape:zoom="22.627417"
     inkscape:cx="19.866695"
     inkscape:cy="10.917546"
     inkscape:document-units="px"
     inkscape:current-layer="layer1"
     showgrid="true"
     inkscape:window-width="1280"
     inkscape:window-height="998"
     inkscape:window-x="0"
     inkscape:window-y="0"
     inkscape:window-maximized="1"
     showguides="true"
     inkscape:guide-bbox="true">
    <inkscape:grid
       type="xygrid"
       id="grid2985"
       empspacing="5"
       visible="true"
       enabled="true"
       snapvisiblegridlinesonly="true" />
  </sodipodi:namedview>
  <metadata
     id="metadata7">
    <rdf:RDF>
      <cc:Work
         rdf:about="">
        <dc:format>image/svg+xml</dc:format>
        <dc:type
           rdf:resource="http://purl.org/dc/dcmitype/StillImage" />
        <dc:title />
      </cc:Work>
    </rdf:RDF>
  </metadata>
  <g
     inkscape:label="Layer 1"
     inkscape:groupmode="layer"
     id="layer1"
     transform="translate(0,-1020.3622)">
    <path
       sodipodi:type="arc"
       style="opacity:0.3;fill:url(#radialGradient3031);fill-opacity:1;stroke:none"
       id="path3956"
       sodipodi:cx="32.5"
       sodipodi:cy="56.5"
       sodipodi:rx="33.5"
       sodipodi:ry="3.5"
       d="M 66,56.5 C 66,58.432997 51.001539,60 32.5,60 13.998461,60 -1,58.432997 -1,56.5 -1,54.567003 13.998461,53 32.5,53 51.001539,53 66,54.567003 66,56.5 z"
       transform="matrix(0.71641791,0,0,0.85714286,-7.2835821,999.9336)" />
    <g
       id="g4325"
       transform="matrix(0.5,0,0,0.5,20.823632,508.499)">
      <path
         style="fill:#1976d2;fill-opacity:1;stroke:none"
         d="m -41.647264,1032.7853 0,42.8234 64,0 0,-21.4117 -3.047619,-18.353 -23.952381,-0.1176 -3,-6 -30.952381,0 c -1.523809,0 -3.047619,1.5295 -3.047619,3.0589 z"
         id="path3029"
         inkscape:connector-curvature="0"
         sodipodi:nodetypes="ccccccccc" />
      <rect
         y="1037.7264"
         x="-36.647263"
         height="11.882284"
         width="31.571428"
         id="rect3799"
         style="fill:#fffdf0;fill-opacity:1;stroke:none" />
      <path
         sodipodi:nodetypes="sscsccccccccs"
         inkscape:connector-curvature="0"
         id="path3790"
         d="m -38.584764,1029.7264 c -1.523809,0 -3.0625,1.5331 -3.0625,3.0625 l 0,2 c 0,-1.5294 1.538691,-3.0625 3.0625,-3.0625 l 29.9375,0 3,6 24.9375,0.125 3.0625,18.3438 0,-2 -3.0625,-18.3438 -23.9375,-0.125 -3,-6 z"
         style="opacity:0.02999998;fill:#000000;fill-opacity:1;stroke:none" />
      <path
         sodipodi:nodetypes="cccccccc"
         inkscape:connector-curvature="0"
         id="rect2987"
         d="m 22.352736,1038.9029 0,42.8235 -64,0 0,-40 30,0 3,-6 27.952381,0.1176 c 1.523809,0 3.047619,1.5295 3.047619,3.0589 z"
         style="fill:#42a5f5;fill-opacity:1;stroke:none" />
      <path
         inkscape:connector-curvature="0"
         style="opacity:0.15;fill:#000000;fill-opacity:1;stroke:none"
         d="m -41.647264,1079.7264 0,2 64,0 0,-2 z"
         id="path3794"
         sodipodi:nodetypes="ccccc" />
      <path
         sodipodi:nodetypes="ccccccccscc"
         inkscape:connector-curvature="0"
         id="path3015"
         d="m -8.647264,1035.7264 -3,6 -30,0 0,2 31,0 3,-6 26.9375,0.125 c 1.523809,0 3.0625,1.5331 3.0625,3.0625 l 0,-2 c 0,-1.5294 -1.538691,-3.0625 -3.0625,-3.0625 z"
         style="opacity:0.02999998;fill:#000000;fill-opacity:1;stroke:none" />
    </g>
    <path
       style="opacity:1.0;fill:#2a74b9;fill-opacity:1;stroke:none"
       d="M 12 13 C 11.287715 13 11 13.3352 11 14 L 11 24 C 11 24.6648 11.287715 25 12 25 L 19.71875 25 C 20.431036 25 21 24.6648 21 24 L 21 14 C 21 13.3352 20.712286 13 20 13 L 12 13 z M 12.5 14 C 12.776142 14 13 14.223858 13 14.5 C 13 14.776142 12.776142 15 12.5 15 C 12.223858 15 12 14.776142 12 14.5 C 12 14.223858 12.223858 14 12.5 14 z M 19.5 14 C 19.776142 14 20 14.223858 20 14.5 C 20 14.776142 19.776142 15 19.5 15 C 19.223858 15 19 14.776142 19 14.5 C 19 14.223858 19.223858 14 19.5 14 z M 16 15 C 17.104569 15 18 15.895431 18 17 C 18 18.104569 17.104569 19 16 19 C 14.895431 19 14 18.104569 14 17 C 14 15.895431 14.895431 15 16 15 z M 12.5 19 C 12.776142 19 13 19.223858 13 19.5 C 13 19.776142 12.776142 20 12.5 20 C 12.223858 20 12 19.776142 12 19.5 C 12 19.223858 12.223858 19 12.5 19 z M 19.5 19 C 19.776142 19 20 19.223858 20 19.5 C 20 19.776142 19.776142 20 19.5 20 C 19.223858 20 19 19.776142 19 19.5 C 19 19.223858 19.223858 19 19.5 19 z M 12.5 23 L 19.5 23 C 19.777 23 20 23.223 20 23.5 C 20 23.777 19.777 24 19.5 24 L 12.5 24 C 12.223 24 12 23.777 12 23.5 C 12 23.223 12.223 23 12.5 23 z "
       transform="translate(0,1020.3622)"
       id="rect3828" />
  </g>
</svg>

<!-- Created with Inkscape (http://www.inkscape.org/) -->
<svg xmlns="http://www.w3.org/2000/svg" viewBox="0 0 32 32">
 <defs>
  <radialGradient id="radialGradient3031" gradientUnits="userSpaceOnUse" gradientTransform="matrix(1,0,0,0.10447761,0,50.597015)" cx="32.5" cy="56.5" r="33.5">
   <stop style="stop-color:#000;stop-opacity:1"/>
   <stop offset="1" style="stop-color:#000;stop-opacity:0"/>
  </radialGradient>
 </defs>
 <g transform="translate(0,-1020.3622)">
  <path d="m 66 56.5 c 0 1.933 -14.998 3.5 -33.5 3.5 -18.502 0 -33.5 -1.567 -33.5 -3.5 0 -1.933 14.998 -3.5 33.5 -3.5 18.502 0 33.5 1.567 33.5 3.5 z" transform="matrix(0.71641791,0,0,0.85714286,-7.2835821,999.9336)" style="fill:url(#radialGradient3031);opacity:0.3;fill-opacity:1;stroke:none"/>
  <g transform="matrix(0.5,0,0,0.5,20.823632,508.499)">
   <path d="m -41.647 1032.79 0 42.823 64 0 0 -21.412 -3.048 -18.353 -23.952 -0.118 -3 -6 -30.952 0 c -1.524 0 -3.048 1.53 -3.048 3.059 z" style="fill:#1976d2;fill-opacity:1;stroke:none"/>
   <rect y="1037.73" x="-36.647" height="11.882" width="31.571" style="fill:#fffdf0;fill-opacity:1;stroke:none"/>
   <path d="m -38.585 1029.73 c -1.524 0 -3.063 1.533 -3.063 3.063 l 0 2 c 0 -1.529 1.539 -3.063 3.063 -3.063 l 29.938 0 3 6 24.938 0.125 3.063 18.344 0 -2 -3.063 -18.344 -23.938 -0.125 -3 -6 z" style="fill:#000;opacity:0.03;fill-opacity:1;stroke:none"/>
   <path d="m 22.353 1038.9 0 42.823 -64 0 0 -40 30 0 3 -6 27.952 0.118 c 1.524 0 3.048 1.53 3.048 3.059 z" style="fill:#42a5f5;fill-opacity:1;stroke:none"/>
   <path d="m -41.647 1079.73 0 2 64 0 0 -2 z" style="fill:#000;opacity:0.15;fill-opacity:1;stroke:none"/>
   <path d="m -8.647 1035.73 -3 6 -30 0 0 2 31 0 3 -6 26.938 0.125 c 1.524 0 3.063 1.533 3.063 3.063 l 0 -2 c 0 -1.529 -1.539 -3.063 -3.063 -3.063 z" style="fill:#000;opacity:0.03;fill-opacity:1;stroke:none"/>
  </g>
  <path d="m 12 13 c -0.712 0 -1 0.335 -1 1 l 0 10 c 0 0.665 0.288 1 1 1 l 7.719 0 c 0.712 0 1.281 -0.335 1.281 -1 l 0 -10 c 0 -0.665 -0.288 -1 -1 -1 l -8 0 z m 0.5 1 c 0.276 0 0.5 0.224 0.5 0.5 c 0 0.276 -0.224 0.5 -0.5 0.5 c -0.276 0 -0.5 -0.224 -0.5 -0.5 c 0 -0.276 0.224 -0.5 0.5 -0.5 z m 7 0 c 0.276 0 0.5 0.224 0.5 0.5 c 0 0.276 -0.224 0.5 -0.5 0.5 c -0.276 0 -0.5 -0.224 -0.5 -0.5 c 0 -0.276 0.224 -0.5 0.5 -0.5 z m -3.5 1 c 1.105 0 2 0.895 2 2 c 0 1.105 -0.895 2 -2 2 c -1.105 0 -2 -0.895 -2 -2 c 0 -1.105 0.895 -2 2 -2 z m -3.5 4 c 0.276 0 0.5 0.224 0.5 0.5 c 0 0.276 -0.224 0.5 -0.5 0.5 c -0.276 0 -0.5 -0.224 -0.5 -0.5 c 0 -0.276 0.224 -0.5 0.5 -0.5 z m 7 0 c 0.276 0 0.5 0.224 0.5 0.5 c 0 0.276 -0.224 0.5 -0.5 0.5 c -0.276 0 -0.5 -0.224 -0.5 -0.5 c 0 -0.276 0.224 -0.5 0.5 -0.5 z m -7 4 l 7 0 c 0.277 0 0.5 0.223 0.5 0.5 c 0 0.277 -0.223 0.5 -0.5 0.5 l -7 0 c -0.277 0 -0.5 -0.223 -0.5 -0.5 c 0 -0.277 0.223 -0.5 0.5 -0.5 z" transform="translate(0,1020.3622)" style="fill:#2a74b9;opacity:1;fill-opacity:1;stroke:none"/>
 </g>
</svg>
